docs/svgs/room-other.svg

<svg viewBox="0 0 24 24" height="24px" width="24px" fill="#44739e" xmlns="http://www.w3.org/2000/svg"><title>hue:room-other</title><desc>Source: https://github.com/arallsopp/hass-hue-icons</desc><path d="M 18.855469 2.054688 C 19.226562 2.109375 19.5 2.429688 19.5 2.804688 L 19.5 21.195312 C 19.5 21.570312 19.226562 21.890625 18.855469 21.945312 L 9.855469 23.242188 C 9.402344 23.308594 9 22.953125 9 22.492188 L 9 21 L 5.289062 21 C 4.855469 21 4.5 20.644531 4.5 20.210938 L 4.5 3.789062 C 4.5 3.355469 4.855469 3 5.289062 3 L 9 3 L 9 1.507812 C 9 1.046875 9.402344 0.691406 9.855469 0.757812 Z M 11.25 12.75 C 11.664062 12.75 12 12.414062 12 12 C 12 11.585938 11.664062 11.25 11.25 11.25 C 10.835938 11.25 10.5 11.585938 10.5 12 C 10.5 12.414062 10.835938 12.75 11.25 12.75 Z M 6 19.5 L 9 19.5 L 9 4.5 L 6 4.5 Z M 6 19.5 "/></svg>

<svg viewBox="0 0 24 24" height="24px" width="24px" fill="#44739e" xmlns="http://www.w3.org/2000/svg"><title>hue:room-other</title><desc>Source: https://github.com/arallsopp/hass-hue-icons</desc><path d="M18.86,2.05c0.37,0.05,0.64,0.38,0.64,0.75V21.2c0,0.38-0.27,0.7-0.64,0.75l-9,1.3C9.4,23.31,9,22.95,9,22.49 V21H5.29c-0.43,0-0.79-0.36-0.79-0.79V3.79C4.5,3.36,4.86,3,5.29,3H9V1.51c0-0.46,0.4-0.82,0.86-0.75L18.86,2.05z M11.25,12.75 c0.41,0,0.75-0.34,0.75-0.75s-0.34-0.75-0.75-0.75S10.5,11.59,10.5,12S10.84,12.75,11.25,12.75z M6,19.5h3v-15H6V19.5z"/></svg>
